Adwaita++/apps/scalable/plasma-search.svg

<svg fill="none" height="128" viewBox="0 0 128 128" width="128" xmlns="http://www.w3.org/2000/svg" xmlns:xlink="http://www.w3.org/1999/xlink">
  <linearGradient id="paint0_linear" gradientUnits="userSpaceOnUse" x1="12" x2="116" y1="64" y2="64">
    <stop offset="0" stop-color="#77767b"/>
    <stop offset=".05" stop-color="#c0bfbc"/>
    <stop offset=".1" stop-color="#9a9996"/>
    <stop offset=".9" stop-color="#9a9996"/>
    <stop offset=".95" stop-color="#c0bfbc"/>
    <stop offset="1" stop-color="#77767b"/>
  </linearGradient>
  <path d="m108 22h-88c-4.4183 0-8 3.5817-8 8v78c0 4.418 3.5817 8 8 8h88c4.418 0 8-3.582 8-8v-78c0-4.4183-3.582-8-8-8z" fill="url(#paint0_linear)"/>
  <path d="m108 12h-88c-4.4183 0-8 3.5817-8 8v80c0 4.418 3.5817 8 8 8h88c4.418 0 8-3.582 8-8v-80c0-4.4183-3.582-8-8-8z" fill="#deddda"/>
  <path d="m108 104h-88c-2.2091 0-4-1.791-4-4v-80c0-2.2091 1.7909-4 4-4h88c2.209 0 4 1.7909 4 4v80c0 2.209-1.791 4-4 4z" fill="#c9b8a7"/>
  <path d="m31 98c0-2.2091 1.7909-4 4-4h58c2.2091 0 4 1.7909 4 4v6h-66z" fill="#908478"/>
  <path d="m112 20v7h-96v-7c0-2.2091 1.7909-4 4-4h88c2.209 0 4 1.7909 4 4z" fill="#908478"/>
  <path d="m25.5 21.5c0-1.6569-1.3431-3-3-3s-3 1.3431-3 3 1.3431 3 3 3 3-1.3431 3-3z" fill="#deddda"/>
  <path d="m48 90.25h-8c-1.1046 0-2 .8954-2 2v8c0 1.105.8954 2 2 2h8c1.1046 0 2-.895 2-2v-8c0-1.1046-.8954-2-2-2z" fill="#3d3846"/>
  <path d="m68 90.25h-8c-1.1046 0-2 .8954-2 2v8c0 1.105.8954 2 2 2h8c1.1046 0 2-.895 2-2v-8c0-1.1046-.8954-2-2-2z" fill="#3d3846"/>
  <path d="m88 90.25h-8c-1.1046 0-2 .8954-2 2v8c0 1.105.8954 2 2 2h8c1.1046 0 2-.895 2-2v-8c0-1.1046-.8954-2-2-2z" fill="#3d3846"/>
  <path d="m48 89.25h-8c-1.1046 0-2 .8954-2 2v8c0 1.105.8954 2 2 2h8c1.1046 0 2-.895 2-2v-8c0-1.1046-.8954-2-2-2z" fill="#3584e4"/>
  <path d="m68 89.25h-8c-1.1046 0-2 .8954-2 2v8c0 1.105.8954 2 2 2h8c1.1046 0 2-.895 2-2v-8c0-1.1046-.8954-2-2-2z" fill="#f66151"/>
  <path d="m88 89.25h-8c-1.1046 0-2 .8954-2 2v8c0 1.105.8954 2 2 2h8c1.1046 0 2-.895 2-2v-8c0-1.1046-.8954-2-2-2z" fill="#2ec27e"/>
  <g clip-rule="evenodd" fill-rule="evenodd">
    <path d="m78.2623 71.235-5.0232-5.0233-2.664 2.664 5.0233 5.0232z" fill="#00000f" opacity=".1"/>
    <path d="m74.2664 69.903c-1.4713 1.4712-1.4713 3.8566 0 5.3279l8.7906 8.7906c1.4713 1.4713 3.8567 1.4713 5.328 0 1.4712-1.4712 1.4712-3.8566 0-5.3279l-8.7907-8.7906c-1.4713-1.4713-3.8567-1.4713-5.3279 0z" fill="#00000f" opacity=".1"/>
    <path d="m58.0932 36.0007c9.7916 0 17.7292 7.9376 17.7292 17.7291 0 9.7916-7.9376 17.7292-17.7292 17.7292-9.7915 0-17.7291-7.9376-17.7291-17.7292 0-9.7915 7.9376-17.7291 17.7291-17.7291zm20.0933 17.7291c0-11.0971-8.9961-20.0932-20.0933-20.0932-11.0971 0-20.0932 8.9961-20.0932 20.0932 0 11.0972 8.9961 20.0933 20.0932 20.0933 11.0972 0 20.0933-8.9961 20.0933-20.0933z" fill="#00000f" opacity=".1"/>
    <path d="m76.9767 67.8664c-.2008.2008-.2008.5264 0 .7272l9.7055 9.7055c.2009.2009.5265.2009.7273 0 .2008-.2008.2008-.5264 0-.7272l-9.7055-9.7055c-.2008-.2008-.5264-.2008-.7273 0z" fill="#fff" opacity=".154"/>
    <path d="m78.2623 69.9792-5.0232-5.0233-2.664 2.664 5.0233 5.0232z" fill="#241f31"/>
    <path d="m78.2623 68.7233-5.0232-5.0232-2.664 2.664 5.0233 5.0232z" fill="#3d3846"/>
    <path d="m74.2664 68.6472c-1.4713 1.4713-1.4713 3.8567 0 5.3279l8.7906 8.7907c1.4713 1.4712 3.8567 1.4712 5.328 0 1.4712-1.4713 1.4712-3.8567 0-5.328l-8.7907-8.7906c-1.4713-1.4713-3.8567-1.4713-5.3279 0z" fill="#613583"/>
    <path d="m74.2664 67.3914c-1.4713 1.4712-1.4713 3.8566 0 5.3279l8.7906 8.7906c1.4713 1.4713 3.8567 1.4713 5.328 0 1.4712-1.4712 1.4712-3.8566 0-5.3279l-8.7907-8.7906c-1.4713-1.4713-3.8567-1.4713-5.3279 0z" fill="#a347ba"/>
  </g>
  <path d="m58.0932 70.0553c10.382 0 18.7982-8.4162 18.7982-18.7981 0-10.382-8.4162-18.7982-18.7982-18.7982-10.3819 0-18.7982 8.4162-18.7982 18.7982 0 10.3819 8.4163 18.7981 18.7982 18.7981z" fill="#fff" opacity=".25"/>
  <path clip-rule="evenodd" d="m58.0932 34.7449c9.7916 0 17.7292 7.9376 17.7292 17.7291 0 9.7916-7.9376 17.7292-17.7292 17.7292-9.7915 0-17.7291-7.9376-17.7291-17.7292 0-9.7915 7.9376-17.7291 17.7291-17.7291zm20.0933 17.7291c0-11.0972-8.9961-20.0932-20.0933-20.0932-11.0971 0-20.0932 8.996-20.0932 20.0932s8.9961 20.0932 20.0932 20.0932c11.0972 0 20.0933-8.996 20.0933-20.0932z" fill="#613583" fill-rule="evenodd"/>
  <path clip-rule="evenodd" d="m58.0932 33.4891c9.7916 0 17.7292 7.9376 17.7292 17.7291 0 9.7916-7.9376 17.7292-17.7292 17.7292-9.7915 0-17.7291-7.9376-17.7291-17.7292 0-9.7915 7.9376-17.7291 17.7291-17.7291zm20.0933 17.7291c0-11.0972-8.9961-20.0932-20.0933-20.0932-11.0971 0-20.0932 8.996-20.0932 20.0932s8.9961 20.0932 20.0932 20.0932c11.0972 0 20.0933-8.996 20.0933-20.0932z" fill="#a347ba" fill-rule="evenodd"/>
  <path clip-rule="evenodd" d="m77.1143 67.7276c-.2452.2453-.2452.6428 0 .888l10.0465 10.0465c.2452.2452.6427.2452.888 0 .2452-.2452.2452-.6428 0-.888l-10.0465-10.0465c-.2452-.2452-.6428-.2452-.888 0z" fill="#fff" fill-rule="evenodd" opacity=".154"/>
</svg>

<svg width="128" height="128" viewBox="0 0 128 128" fill="none" xmlns="http://www.w3.org/2000/svg">
<path d="M108 22H20C15.5817 22 12 25.5817 12 30V108C12 112.418 15.5817 116 20 116H108C112.418 116 116 112.418 116 108V30C116 25.5817 112.418 22 108 22Z" fill="url(#paint0_linear)"/>
<path d="M108 12H20C15.5817 12 12 15.5817 12 20V100C12 104.418 15.5817 108 20 108H108C112.418 108 116 104.418 116 100V20C116 15.5817 112.418 12 108 12Z" fill="#DEDDDA"/>
<path d="M108 104H20C17.7909 104 16 102.209 16 100V20C16 17.7909 17.7909 16 20 16H108C110.209 16 112 17.7909 112 20V100C112 102.209 110.209 104 108 104Z" fill="#C9B8A7"/>
<path d="M31 98C31 95.7909 32.7909 94 35 94H93C95.2091 94 97 95.7909 97 98V104H31V98Z" fill="#908478"/>
<path d="M112 20V27H16V20C16 17.7909 17.7909 16 20 16H108C110.209 16 112 17.7909 112 20Z" fill="#908478"/>
<path d="M25.5 21.5C25.5 19.8431 24.1569 18.5 22.5 18.5C20.8431 18.5 19.5 19.8431 19.5 21.5C19.5 23.1569 20.8431 24.5 22.5 24.5C24.1569 24.5 25.5 23.1569 25.5 21.5Z" fill="#DEDDDA"/>
<path d="M48 90.25H40C38.8954 90.25 38 91.1454 38 92.25V100.25C38 101.355 38.8954 102.25 40 102.25H48C49.1046 102.25 50 101.355 50 100.25V92.25C50 91.1454 49.1046 90.25 48 90.25Z" fill="url(#paint1_linear)"/>
<path d="M68 90.25H60C58.8954 90.25 58 91.1454 58 92.25V100.25C58 101.355 58.8954 102.25 60 102.25H68C69.1046 102.25 70 101.355 70 100.25V92.25C70 91.1454 69.1046 90.25 68 90.25Z" fill="url(#paint2_linear)"/>
<path d="M88 90.25H80C78.8954 90.25 78 91.1454 78 92.25V100.25C78 101.355 78.8954 102.25 80 102.25H88C89.1046 102.25 90 101.355 90 100.25V92.25C90 91.1454 89.1046 90.25 88 90.25Z" fill="url(#paint3_linear)"/>
<path d="M48 89.25H40C38.8954 89.25 38 90.1454 38 91.25V99.25C38 100.355 38.8954 101.25 40 101.25H48C49.1046 101.25 50 100.355 50 99.25V91.25C50 90.1454 49.1046 89.25 48 89.25Z" fill="#3584E4"/>
<path d="M68 89.25H60C58.8954 89.25 58 90.1454 58 91.25V99.25C58 100.355 58.8954 101.25 60 101.25H68C69.1046 101.25 70 100.355 70 99.25V91.25C70 90.1454 69.1046 89.25 68 89.25Z" fill="#F66151"/>
<path d="M88 89.25H80C78.8954 89.25 78 90.1454 78 91.25V99.25C78 100.355 78.8954 101.25 80 101.25H88C89.1046 101.25 90 100.355 90 99.25V91.25C90 90.1454 89.1046 89.25 88 89.25Z" fill="#2EC27E"/>
<path opacity="0.1" fill-rule="evenodd" clip-rule="evenodd" d="M78.2623 71.235L73.2391 66.2117L70.5751 68.8757L75.5984 73.8989L78.2623 71.235Z" fill="#00000F"/>
<path opacity="0.1" fill-rule="evenodd" clip-rule="evenodd" d="M74.2664 69.903C72.7951 71.3742 72.7951 73.7596 74.2664 75.2309L83.057 84.0215C84.5283 85.4928 86.9137 85.4928 88.385 84.0215C89.8562 82.5503 89.8562 80.1649 88.385 78.6936L79.5943 69.903C78.123 68.4317 75.7376 68.4317 74.2664 69.903Z" fill="#00000F"/>
<path opacity="0.1" fill-rule="evenodd" clip-rule="evenodd" d="M58.0932 36.0007C67.8848 36.0007 75.8224 43.9383 75.8224 53.7298C75.8224 63.5214 67.8848 71.459 58.0932 71.459C48.3017 71.459 40.3641 63.5214 40.3641 53.7298C40.3641 43.9383 48.3017 36.0007 58.0932 36.0007ZM78.1865 53.7298C78.1865 42.6327 69.1904 33.6366 58.0932 33.6366C46.9961 33.6366 38 42.6327 38 53.7298C38 64.827 46.9961 73.8231 58.0932 73.8231C69.1904 73.8231 78.1865 64.827 78.1865 53.7298Z" fill="#00000F"/>
<path opacity="0.154" fill-rule="evenodd" clip-rule="evenodd" d="M76.9767 67.8664C76.7759 68.0672 76.7759 68.3928 76.9767 68.5936L86.6822 78.2991C86.8831 78.5 87.2087 78.5 87.4095 78.2991C87.6103 78.0983 87.6103 77.7727 87.4095 77.5719L77.704 67.8664C77.5032 67.6656 77.1776 67.6656 76.9767 67.8664Z" fill="white"/>
<path fill-rule="evenodd" clip-rule="evenodd" d="M78.2623 69.9792L73.2391 64.9559L70.5751 67.6199L75.5984 72.6431L78.2623 69.9792Z" fill="#241F31"/>
<path fill-rule="evenodd" clip-rule="evenodd" d="M78.2623 68.7233L73.2391 63.7001L70.5751 66.3641L75.5984 71.3873L78.2623 68.7233Z" fill="#3D3846"/>
<path fill-rule="evenodd" clip-rule="evenodd" d="M74.2664 68.6472C72.7951 70.1185 72.7951 72.5039 74.2664 73.9751L83.057 82.7658C84.5283 84.237 86.9137 84.237 88.385 82.7658C89.8562 81.2945 89.8562 78.9091 88.385 77.4378L79.5943 68.6472C78.123 67.1759 75.7376 67.1759 74.2664 68.6472Z" fill="#613583"/>
<path fill-rule="evenodd" clip-rule="evenodd" d="M74.2664 67.3914C72.7951 68.8626 72.7951 71.248 74.2664 72.7193L83.057 81.5099C84.5283 82.9812 86.9137 82.9812 88.385 81.5099C89.8562 80.0387 89.8562 77.6533 88.385 76.182L79.5943 67.3914C78.123 65.9201 75.7376 65.9201 74.2664 67.3914Z" fill="#A347BA"/>
<path opacity="0.25" d="M58.0932 70.0553C68.4752 70.0553 76.8914 61.6391 76.8914 51.2572C76.8914 40.8752 68.4752 32.459 58.0932 32.459C47.7113 32.459 39.295 40.8752 39.295 51.2572C39.295 61.6391 47.7113 70.0553 58.0932 70.0553Z" fill="white"/>
<path fill-rule="evenodd" clip-rule="evenodd" d="M58.0932 34.7449C67.8848 34.7449 75.8224 42.6825 75.8224 52.474C75.8224 62.2656 67.8848 70.2032 58.0932 70.2032C48.3017 70.2032 40.3641 62.2656 40.3641 52.474C40.3641 42.6825 48.3017 34.7449 58.0932 34.7449ZM78.1865 52.474C78.1865 41.3768 69.1904 32.3808 58.0932 32.3808C46.9961 32.3808 38 41.3768 38 52.474C38 63.5712 46.9961 72.5672 58.0932 72.5672C69.1904 72.5672 78.1865 63.5712 78.1865 52.474Z" fill="#613583"/>
<path fill-rule="evenodd" clip-rule="evenodd" d="M58.0932 33.4891C67.8848 33.4891 75.8224 41.4267 75.8224 51.2182C75.8224 61.0098 67.8848 68.9474 58.0932 68.9474C48.3017 68.9474 40.3641 61.0098 40.3641 51.2182C40.3641 41.4267 48.3017 33.4891 58.0932 33.4891ZM78.1865 51.2182C78.1865 40.121 69.1904 31.125 58.0932 31.125C46.9961 31.125 38 40.121 38 51.2182C38 62.3154 46.9961 71.3114 58.0932 71.3114C69.1904 71.3114 78.1865 62.3154 78.1865 51.2182Z" fill="#A347BA"/>
<path opacity="0.154" fill-rule="evenodd" clip-rule="evenodd" d="M77.1143 67.7276C76.8691 67.9729 76.8691 68.3704 77.1143 68.6156L87.1608 78.6621C87.406 78.9073 87.8035 78.9073 88.0488 78.6621C88.294 78.4169 88.294 78.0193 88.0488 77.7741L78.0023 67.7276C77.7571 67.4824 77.3595 67.4824 77.1143 67.7276Z" fill="white"/>
<defs>
<linearGradient id="paint0_linear" x1="12" y1="64" x2="116" y2="64" gradientUnits="userSpaceOnUse">
<stop stop-color="#77767B"/>
<stop offset="0.05" stop-color="#C0BFBC"/>
<stop offset="0.1" stop-color="#9A9996"/>
<stop offset="0.9" stop-color="#9A9996"/>
<stop offset="0.95" stop-color="#C0BFBC"/>
<stop offset="1" stop-color="#77767B"/>
</linearGradient>
<linearGradient id="paint1_linear" x1="38" y1="96.25" x2="50" y2="96.25" gradientUnits="userSpaceOnUse">
<stop stop-color="#3D3846"/>
</linearGradient>
<linearGradient id="paint2_linear" x1="58" y1="96.25" x2="70" y2="96.25" gradientUnits="userSpaceOnUse">
<stop stop-color="#3D3846"/>
</linearGradient>
<linearGradient id="paint3_linear" x1="78" y1="96.25" x2="90" y2="96.25" gradientUnits="userSpaceOnUse">
<stop stop-color="#3D3846"/>
</linearGradient>
</defs>
</svg>
